X:429
T:
S:Efter »Florsen» i Burs.
R:vals
O:Gotland, Burs
M:3/4
L:1/8
K:F
F4 A2|c4 f2|fc A2 A2|cA F2 F2 |C4 E2|G4 A2|BA Bd cE|F6:|
K:C
|:G4 GG|G2 e2 d2|c2 B2 c2|d2 e2 d2|G4 GG|G2 e2 d2|cB AG AB|c6:|
K:F
|:f2 c2 A2|cB AB G2|g2 ec de|fe fg ag|g2 c2 A2|cB AB G2|g2 ec de|f6:|

